X: 39139
T: Sweetest When Naked
R: polka
M: 2/4
K: Amajor
z|EA/B/ cA|ceec|BB/c/ dB|dffa|
EA/B/ cA|cefg|aecA|EA A:|
|:c/d/|ecef|ecef|ecef|dBBc|
dBde|dBde|dBbd|cA A2|
EA/B/ cA|ceec|BB/c/ dB|dffg|
aece|fdBd|ecBA|EAA:|

